X:1
T:Title
%%score { 1 | 2 }
L:1/8
Q:1/4=100
M:4/4
K:G
V:1 treble nm="Grand Piano"
V:2 treble 
V:1
 B>B B>B B2 G2 | [FA]>[FA] [Fd]>[Fd] B4 | G>A B>B [EGd]2 [EGc]2 | [DGB]>G A>F G4 | %4
w: J.~H.~Tenney * * * * *||||
 [FA]>[FA] [FA]>[FA] [FA]2 [Fd]2 | [E^c]>[GB] [FA]>[EG] [DF]4 | [FA]>[FA] [FA]>[FA] B2 B2 | %7
w: |||
 ^c>B c>A [Fd]4 | [Bd]>[Ac] [GB]>[Ac] [Bd]2 [GB]2 | [Ac]>[GB] [FA]>[GB] [Ac]4 | B>A G>A B2 G2 | %11
w: ||||
 [FA]>[=F^G] [^FA]>[=GB] [FA]4 | B>_B =B>c B2 G2 | d>^c d>e d2 B2 | G>A B>B [EGd]2 [EGc]2 | %15
w: ||||
 [DGB]>G A>F G4 |] %16
w: |
V:2
 [G,DG]>[G,DG] [G,DG]>[G,DG] [G,DG]2[K:bass] [G,B,]2 | [D,D]>[D,D] [D,D]>[D,D][K:treble] [G,DG]4 | %2
 [G,B,]>[G,CG] [G,DG]>[G,=FG][K:bass] C,2 C,2 | D,>[D,B,D] [D,CD]>[D,A,D] [G,B,D]4 | %4
 [D,D]>[D,D] [D,D]>[D,D] [D,D]2 [D,A,]2 | [A,,A,]>[A,,A,] [A,,A,]>[A,,A,] [D,A,]4 | %6
 [D,D]>[D,D] [D,D]>[D,D][K:treble] [G,DG]2 [G,DG]2 | [A,G]>[A,G] [A,G]>[A,G][K:bass] [D,A,]4 | %8
 G,>G, G,>G, G,2 G,2 | [D,D]>[D,D] [D,D]>[D,D] [D,D]4 | %10
 [G,DG]>[G,CG] [G,B,]>[G,CG] [G,DG]2[K:bass] [G,B,]2 | [D,D]>[D,D] [D,D]>[D,D] [D,D]4 | z8 | %13
 B>_B =B>c B2 G2 | [G,B,]>[G,CG] [G,DG]>[G,=FG][K:bass] C,2 C,2 | %15
 D,>[D,B,D] [D,CD]>[D,A,D] [G,B,D]4 |] %16

